img/label_3.svg

<svg width="85" height="41" viewBox="0 0 85 41" fill="none" xmlns="http://www.w3.org/2000/svg">
<path d="M52.3799 31.9574C47.6599 35.4408 40.8199 37.2908 34.9265 37.2908C27.0548 37.329 19.4526 34.426 13.6099 29.1508C13.1699 28.7508 13.5632 28.2041 14.0932 28.5141C20.5883 32.2315 27.9429 34.1851 35.4265 34.1808C41.0166 34.1534 46.5461 33.0206 51.6965 30.8474C52.4932 30.5141 53.1632 31.3741 52.3832 31.9508" fill="#6D7D93"/>
<path d="M54.3434 29.7174C54.9467 30.4907 53.6767 33.6741 53.1034 35.0974C52.93 35.5274 53.3 35.7007 53.69 35.3741C56.22 33.2574 56.8734 28.8207 56.3567 28.1774C55.84 27.5341 51.4167 26.9974 48.7167 28.8941C48.3 29.1841 48.3834 29.5874 48.83 29.5307C50.3534 29.3507 53.7367 28.9441 54.3434 29.7174ZM48.94 15.4841C48.9391 15.5463 48.9508 15.6081 48.9746 15.6656C48.9984 15.7232 49.0337 15.7752 49.0783 15.8186C49.123 15.862 49.176 15.8958 49.2342 15.918C49.2924 15.9401 49.3545 15.9501 49.4167 15.9474H53.7334L48.7734 23.0707C48.5473 23.453 48.4405 23.8941 48.4667 24.3374V26.2041C48.4667 26.4774 48.7667 26.7841 49.0567 26.6341C50.4059 25.9364 51.9027 25.5723 53.4217 25.5723C54.9406 25.5723 56.4375 25.9364 57.7867 26.6341C58.0967 26.7974 58.3934 26.4841 58.3934 26.2141V24.2474C58.3907 24.0995 58.3489 23.9549 58.2722 23.8285C58.1955 23.702 58.0866 23.5981 57.9567 23.5274C56.503 22.7793 54.8756 22.434 53.2434 22.5274L57.5234 16.4174C57.92 15.8674 58.1434 15.5207 58.1434 15.2574V13.6474C58.1443 13.5853 58.1326 13.5236 58.1091 13.4662C58.0855 13.4087 58.0506 13.3566 58.0064 13.313C57.9621 13.2694 57.9095 13.2352 57.8517 13.2124C57.7939 13.1897 57.7321 13.1789 57.67 13.1807H49.4067C49.345 13.1794 49.2837 13.1905 49.2265 13.2135C49.1693 13.2364 49.1173 13.2708 49.0737 13.3144C49.0301 13.358 48.9957 13.41 48.9728 13.4672C48.9498 13.5244 48.9387 13.5857 48.94 13.6474V15.4841ZM18.8 27.0041C18.8623 27.0058 18.9243 26.9952 18.9824 26.9728C19.0406 26.9504 19.0937 26.9167 19.1386 26.8735C19.1836 26.8304 19.2196 26.7788 19.2444 26.7217C19.2693 26.6645 19.2825 26.603 19.2834 26.5407V19.7007C19.2867 18.2074 19.21 16.1507 21.0234 16.1507C22.8367 16.1507 22.57 18.2674 22.57 19.7041V26.5441C22.5717 26.6638 22.6193 26.7784 22.7031 26.864C22.7868 26.9497 22.9003 26.9998 23.02 27.0041H25.5434C25.6055 27.0054 25.6673 26.9945 25.7253 26.9719C25.7832 26.9493 25.8361 26.9156 25.881 26.8725C25.9259 26.8295 25.9619 26.7781 25.9869 26.7211C26.0119 26.6642 26.0254 26.6029 26.0267 26.5407V19.7007C26.0267 18.9674 26.0034 17.8841 26.26 17.2341C26.3789 16.9294 26.5849 16.6664 26.8522 16.4779C27.1195 16.2894 27.4364 16.1837 27.7634 16.1741C28.49 16.1741 29.0534 16.4174 29.24 17.2874C29.36 17.8007 29.3134 19.1607 29.3134 19.7007V26.5441C29.315 26.6638 29.3626 26.7784 29.4464 26.864C29.5302 26.9497 29.6436 26.9998 29.7634 27.0041H32.2734C32.3992 27.0068 32.521 26.9595 32.6122 26.8727C32.7034 26.7859 32.7565 26.6666 32.76 26.5407V18.4007C32.76 17.0141 32.92 15.4374 32.1234 14.3541C31.7165 13.8399 31.1808 13.4426 30.5706 13.2026C29.9604 12.9625 29.2976 12.8884 28.6494 12.9876C28.0013 13.0868 27.391 13.3559 26.8805 13.7674C26.3701 14.179 25.9777 14.7184 25.7434 15.3307C25.0367 13.7041 24.0534 12.9441 22.48 12.9441C20.9067 12.9441 19.78 13.7041 19.1734 15.3307H19.1267V13.6641C19.1169 13.5479 19.0645 13.4394 18.9796 13.3594C18.8947 13.2794 18.7833 13.2336 18.6667 13.2307H16.3334C16.2075 13.228 16.0857 13.2753 15.9945 13.3621C15.9033 13.4489 15.8502 13.5682 15.8467 13.6941V26.5807C15.8579 26.6938 15.9096 26.7989 15.9924 26.8767C16.0751 26.9546 16.1832 26.9998 16.2967 27.0041H18.81H18.8ZM65.2567 12.9407C61.62 12.9407 59.59 16.0641 59.59 20.0841C59.59 24.1041 61.59 27.2774 65.2567 27.2774C68.7767 27.2774 71.0067 24.1541 71.0067 20.2174C71.0067 16.1507 68.9867 12.9407 65.2567 12.9407ZM65.2567 24.6074C63.2867 24.6074 63.31 21.2407 63.31 19.6641C63.31 18.0874 63.4267 15.5641 65.28 15.5641C66.08 15.5641 66.64 15.9174 66.9234 16.8141C67.2142 17.9298 67.341 19.0818 67.3 20.2341C67.3 21.9007 67.21 24.6174 65.2567 24.6174V24.6074ZM75.8434 27.0041C75.9696 27.0068 76.0917 26.9597 76.1834 26.8729C76.2751 26.7862 76.329 26.6669 76.3334 26.5407V19.5941C76.288 18.7603 76.4245 17.9266 76.7334 17.1507C76.8506 16.8573 77.0502 16.6039 77.308 16.4212C77.5658 16.2385 77.871 16.1341 78.1867 16.1207C79.9267 16.1207 79.76 18.1807 79.76 19.5941V26.5941C79.7742 26.7047 79.8272 26.8067 79.9097 26.8818C79.9921 26.9569 80.0986 27.0002 80.21 27.0041H82.73C82.8458 27.0061 82.9583 26.966 83.0466 26.8912C83.135 26.8163 83.193 26.7119 83.21 26.5974V18.4841C83.21 17.2374 83.21 15.4841 82.5434 14.4674C82.2314 13.9784 81.7959 13.5803 81.2808 13.3134C80.7658 13.0465 80.1895 12.9203 79.61 12.9474C77.8734 12.9474 76.8867 13.7874 76.1834 15.5507H76.1367V13.5741C76.1109 13.474 76.0535 13.3849 75.9731 13.32C75.8926 13.2551 75.7933 13.218 75.69 13.2141H73.3567C73.2391 13.2131 73.1253 13.2554 73.0368 13.3328C72.9484 13.4102 72.8914 13.5174 72.8767 13.6341V26.5441C72.8783 26.6638 72.926 26.7784 73.0097 26.864C73.0935 26.9497 73.207 26.9998 73.3267 27.0041H75.83H75.8434ZM46.83 24.6407C46.37 24.0041 45.88 23.4907 45.88 22.3074V18.3974C45.88 16.7307 45.9967 15.2107 44.7734 14.0641C43.81 13.1507 42.21 12.8174 40.99 12.8174C38.5967 12.8174 35.9267 13.7107 35.3667 16.6674C35.3548 16.7267 35.3552 16.7879 35.368 16.847C35.3807 16.9062 35.4056 16.9621 35.4409 17.0112C35.4763 17.0603 35.5214 17.1016 35.5734 17.1325C35.6255 17.1634 35.6833 17.1832 35.7434 17.1907L38.18 17.4574C38.2928 17.4378 38.3961 17.3819 38.4743 17.2983C38.5525 17.2147 38.6013 17.1079 38.6134 16.9941C38.8267 15.9741 39.6767 15.4841 40.6367 15.4841C40.9083 15.4718 41.1787 15.5261 41.4245 15.6423C41.6702 15.7585 41.8839 15.933 42.0467 16.1507C42.4 16.6674 42.3534 17.3741 42.3534 17.9741V18.3074C40.8967 18.4707 38.99 18.5774 37.6267 19.1774C36.8144 19.5054 36.1227 20.0754 35.6456 20.8101C35.1685 21.5448 34.9292 22.4086 34.96 23.2841C34.96 25.8974 36.6067 27.2041 38.72 27.2041C40.51 27.2041 41.4867 26.7807 42.8667 25.3774C43.2416 26.0157 43.7295 26.5805 44.3067 27.0441C44.3995 27.0966 44.5061 27.1193 44.6123 27.1092C44.7184 27.099 44.8189 27.0565 44.9 26.9874C45.4 26.5374 46.3134 25.7441 46.8267 25.3207C46.8725 25.2768 46.909 25.2242 46.934 25.1659C46.959 25.1076 46.9721 25.0449 46.9724 24.9814C46.9727 24.918 46.9603 24.8552 46.9358 24.7966C46.9113 24.7381 46.8754 24.6851 46.83 24.6407ZM42.3534 20.8441C42.3534 21.8241 42.3767 22.6374 41.8834 23.5107C41.7223 23.8394 41.4757 24.1186 41.1696 24.3192C40.8634 24.5198 40.509 24.6343 40.1434 24.6507C39.1767 24.6507 38.6134 23.9174 38.6134 22.8307C38.6134 20.6907 40.5334 20.3007 42.3534 20.3007V20.8441ZM13.8767 24.6407C13.4167 24.0041 12.9267 23.4907 12.9267 22.3074V18.3974C12.9267 16.7307 13.0467 15.2107 11.8234 14.0641C10.8767 13.1507 9.26002 12.8174 8.03669 12.8174C5.64669 12.8174 2.97668 13.7107 2.41668 16.6674C2.40474 16.7265 2.40507 16.7874 2.41764 16.8463C2.43021 16.9053 2.45476 16.961 2.48977 17.0101C2.52477 17.0592 2.56949 17.1005 2.62114 17.1316C2.67278 17.1627 2.73027 17.1828 2.79002 17.1907L5.22669 17.4574C5.33939 17.4369 5.44258 17.3808 5.52115 17.2975C5.59972 17.2141 5.64955 17.1078 5.66335 16.9941C5.87669 15.9741 6.72669 15.4841 7.68335 15.4841C7.95492 15.4718 8.22538 15.5261 8.47115 15.6423C8.71691 15.7585 8.93052 15.933 9.09335 16.1507C9.44669 16.6674 9.40002 17.3741 9.40002 17.9741V18.3074C7.94335 18.4707 6.04002 18.5774 4.67335 19.1774C3.86104 19.5054 3.16937 20.0754 2.69228 20.8101C2.2152 21.5448 1.97583 22.4086 2.00668 23.2841C2.00668 25.8974 3.65335 27.2041 5.77002 27.2041C7.55669 27.2041 8.53335 26.7807 9.91335 25.3774C10.2893 26.015 10.7771 26.5796 11.3534 27.0441C11.4461 27.0966 11.5528 27.1193 11.6589 27.1092C11.7651 27.099 11.8655 27.0565 11.9467 26.9874C12.4467 26.5374 13.36 25.7441 13.8734 25.3207C13.9196 25.2771 13.9564 25.2245 13.9817 25.1662C14.007 25.1079 14.0202 25.045 14.0205 24.9814C14.0208 24.9179 14.0082 24.8549 13.9835 24.7963C13.9588 24.7378 13.9225 24.6848 13.8767 24.6407ZM9.40002 20.8441C9.40002 21.8241 9.42335 22.6374 8.93002 23.5107C8.76892 23.8394 8.52238 24.1186 8.21624 24.3192C7.9101 24.5198 7.55564 24.6343 7.19002 24.6507C6.22669 24.6507 5.66002 23.9174 5.66002 22.8307C5.66002 20.6907 7.58335 20.3007 9.40002 20.3007V20.8441Z" fill="#6D7D93"/>
</svg>

<svg width="85" height="41" fill="none" xmlns="http://www.w3.org/2000/svg"><path d="M52.38 31.957c-4.72 3.484-11.56 5.334-17.454 5.334a31.58 31.58 0 0 1-21.316-8.14c-.44-.4-.047-.947.483-.637a42.898 42.898 0 0 0 21.333 5.667 42.386 42.386 0 0 0 16.27-3.334c.797-.333 1.467.527.687 1.104" fill="#6D7D93"/><path d="M54.343 29.717c.604.774-.666 3.957-1.24 5.38-.173.43.197.604.587.277 2.53-2.117 3.183-6.553 2.667-7.197-.517-.643-4.94-1.18-7.64.717-.417.29-.334.693.113.637 1.523-.18 4.907-.587 5.513.186ZM48.94 15.484a.457.457 0 0 0 .477.463h4.316l-4.96 7.124a2.23 2.23 0 0 0-.306 1.266v1.867c0 .273.3.58.59.43a9.503 9.503 0 0 1 8.73 0c.31.163.606-.15.606-.42v-1.967a.837.837 0 0 0-.436-.72 9.157 9.157 0 0 0-4.714-1l4.28-6.11c.397-.55.62-.896.62-1.16v-1.61a.46.46 0 0 0-.473-.466h-8.263a.457.457 0 0 0-.467.466v1.837ZM18.8 27.004a.471.471 0 0 0 .483-.463V19.7c.004-1.494-.073-3.55 1.74-3.55 1.814 0 1.547 2.116 1.547 3.553v6.84a.467.467 0 0 0 .45.46h2.523a.474.474 0 0 0 .484-.463V19.7c0-.734-.024-1.817.233-2.467a1.667 1.667 0 0 1 1.503-1.06c.727 0 1.29.243 1.477 1.113.12.514.073 1.874.073 2.414v6.843a.466.466 0 0 0 .45.46h2.51a.477.477 0 0 0 .487-.463V18.4c0-1.387.16-2.964-.637-4.047a3.713 3.713 0 0 0-6.38.977c-.706-1.627-1.69-2.387-3.263-2.387s-2.7.76-3.307 2.387h-.046v-1.667a.473.473 0 0 0-.46-.433h-2.334a.477.477 0 0 0-.486.463v12.887a.47.47 0 0 0 .45.423h2.513-.01Zm46.457-14.063c-3.637 0-5.667 3.123-5.667 7.143s2 7.193 5.667 7.193c3.52 0 5.75-3.123 5.75-7.06 0-4.066-2.02-7.276-5.75-7.276Zm0 11.666c-1.97 0-1.947-3.366-1.947-4.943 0-1.577.117-4.1 1.97-4.1.8 0 1.36.353 1.643 1.25.291 1.116.418 2.268.377 3.42 0 1.667-.09 4.383-2.043 4.383v-.01Zm10.586 2.397a.48.48 0 0 0 .49-.463v-6.947a5.76 5.76 0 0 1 .4-2.443 1.64 1.64 0 0 1 1.454-1.03c1.74 0 1.573 2.06 1.573 3.473v7a.47.47 0 0 0 .45.41h2.52a.477.477 0 0 0 .48-.407v-8.113c0-1.247 0-3-.667-4.017a3.297 3.297 0 0 0-2.933-1.52c-1.737 0-2.723.84-3.427 2.604h-.046v-1.977a.48.48 0 0 0-.447-.36h-2.333a.48.48 0 0 0-.48.42v12.91a.467.467 0 0 0 .45.46h2.516ZM46.83 24.641c-.46-.637-.95-1.15-.95-2.334v-3.91c0-1.666.117-3.186-1.107-4.333-.963-.913-2.563-1.247-3.783-1.247-2.393 0-5.063.894-5.623 3.85a.44.44 0 0 0 .376.524l2.437.266a.526.526 0 0 0 .433-.463c.214-1.02 1.064-1.51 2.024-1.51a1.667 1.667 0 0 1 1.41.667c.353.516.306 1.223.306 1.823v.333c-1.456.164-3.363.27-4.726.87a4.267 4.267 0 0 0-2.667 4.107c0 2.613 1.647 3.92 3.76 3.92 1.79 0 2.767-.423 4.147-1.827a6.1 6.1 0 0 0 1.44 1.667.52.52 0 0 0 .593-.057c.5-.45 1.413-1.243 1.927-1.666a.472.472 0 0 0 .003-.68Zm-4.477-3.797c0 .98.024 1.793-.47 2.667a2.04 2.04 0 0 1-1.74 1.14c-.966 0-1.53-.734-1.53-1.82 0-2.14 1.92-2.53 3.74-2.53v.543Zm-28.476 3.797c-.46-.637-.95-1.15-.95-2.334v-3.91c0-1.666.12-3.186-1.104-4.333-.946-.913-2.563-1.247-3.786-1.247-2.39 0-5.06.894-5.62 3.85a.44.44 0 0 0 .373.524l2.437.266a.537.537 0 0 0 .436-.463c.214-1.02 1.064-1.51 2.02-1.51a1.667 1.667 0 0 1 1.41.667c.354.516.307 1.223.307 1.823v.333c-1.457.164-3.36.27-4.727.87a4.267 4.267 0 0 0-2.666 4.107c0 2.613 1.646 3.92 3.763 3.92 1.787 0 2.763-.423 4.143-1.827a6.158 6.158 0 0 0 1.44 1.667.52.52 0 0 0 .594-.057c.5-.45 1.413-1.243 1.926-1.666a.47.47 0 0 0 .004-.68ZM9.4 20.844c0 .98.023 1.793-.47 2.667a2.04 2.04 0 0 1-1.74 1.14c-.963 0-1.53-.734-1.53-1.82 0-2.14 1.923-2.53 3.74-2.53v.543Z" fill="#6D7D93"/></svg>
